src/symbols/alphanum/1F233.svg

<svg id="emoji" viewBox="0 0 72 72" xmlns="http://www.w3.org/2000/svg">
  <g id="grid">
    <path fill="#b3b3b3" d="M68,4V68H4V4H68m4-4H0V72H72V0Z"/>
    <path fill="none" stroke="#00a5ff" stroke-miterlimit="10" stroke-width="0.1" d="M12.923,10.9583H59.0769A1.9231,1.9231,0,0,1,61,12.8814V59.0352a1.9231,1.9231,0,0,1-1.9231,1.9231H12.9231A1.9231,1.9231,0,0,1,11,59.0352V12.8813A1.923,1.923,0,0,1,12.923,10.9583Z"/>
    <rect x="16" y="4" rx="2.2537" width="40" height="64" fill="none" stroke="#00a5ff" stroke-miterlimit="10" stroke-width="0.1"/>
    <rect x="16" y="4" rx="2.2537" width="40" height="64" transform="translate(72) rotate(90)" fill="none" stroke="#00a5ff" stroke-miterlimit="10" stroke-width="0.1"/>
    <circle cx="36" cy="36" r="29" fill="none" stroke="#00a5ff" stroke-miterlimit="10" stroke-width="0.1"/>
  </g>
  <g id="color">
    <path fill="#1e50a0" d="M59.0349,60h-46.07A.9679.9679,0,0,1,12,59.0349v-46.07A.9679.9679,0,0,1,12.9651,12h46.07A.9679.9679,0,0,1,60,12.9651v46.07A.9679.9679,0,0,1,59.0349,60Z"/>
  </g>
  <g id="line">
    <path fill="none" stroke="#000" stroke-miterlimit="10" stroke-width="2" d="M59.0349,60h-46.07A.9679.9679,0,0,1,12,59.0349v-46.07A.9679.9679,0,0,1,12.9651,12h46.07A.9679.9679,0,0,1,60,12.9651v46.07A.9679.9679,0,0,1,59.0349,60Z"/>
    <polyline fill="none" stroke="#000" stroke-linecap="round" stroke-linejoin="round" stroke-width="2" points="23 30 23 26 48 26 48 30"/>
    <line x1="35.5" x2="35.5" y1="22.5" y2="26" fill="none" stroke="#000" stroke-linecap="round" stroke-linejoin="round" stroke-width="2"/>
    <path fill="none" stroke="#000" stroke-linecap="round" stroke-linejoin="round" stroke-width="2" d="M31.5,26.5s2,8-9,10"/>
    <path fill="none" stroke="#000" stroke-linecap="round" stroke-linejoin="round" stroke-width="2" d="M38.34,26l.16,8.5h5.5858a3.4142,3.4142,0,0,0,2.4142-1h0"/>
    <line x1="25" x2="46" y1="41" y2="41" fill="none" stroke="#000" stroke-linecap="round" stroke-linejoin="round" stroke-width="2"/>
    <polyline fill="none" stroke="#000" stroke-linecap="round" stroke-linejoin="round" stroke-width="2" points="35.5 41.5 35.5 49.5 22.5 49.5"/>
    <line x1="49.5" x2="35.5" y1="49.5" y2="49.5" fill="none" stroke="#000" stroke-linecap="round" stroke-linejoin="round" stroke-width="2"/>
  </g>
</svg>

<svg viewBox="0 0 72 72" xmlns="http://www.w3.org/2000/svg"><path fill="#b3b3b3" d="M68 4v64H4V4h64m4-4H0v72h72V0z"/><path fill="none" stroke="#00a5ff" stroke-miterlimit="10" stroke-width=".1" d="M12.923 10.958h46.154A1.923 1.923 0 0161 12.881v46.154a1.923 1.923 0 01-1.923 1.923H12.923A1.923 1.923 0 0111 59.035V12.881a1.923 1.923 0 011.923-1.923z"/><rect x="16" y="4" rx="2.254" width="40" height="64" fill="none" stroke="#00a5ff" stroke-miterlimit="10" stroke-width=".1"/><rect x="16" y="4" rx="2.254" width="40" height="64" transform="rotate(90 36 36)" fill="none" stroke="#00a5ff" stroke-miterlimit="10" stroke-width=".1"/><circle cx="36" cy="36" r="29" fill="none" stroke="#00a5ff" stroke-miterlimit="10" stroke-width=".1"/><g stroke-linecap="round" stroke-miterlimit="10" stroke-width="6" stroke="#fff" fill="none" stroke-linejoin="round"><path d="M59.035 60h-46.07a.968.968 0 01-.965-.965v-46.07a.968.968 0 01.965-.965h46.07a.968.968 0 01.965.965v46.07a.968.968 0 01-.965.965z"/><path d="M23 30v-4h25v4m-12.5-7.5V26m-4 .5s2 8-9 10"/><path d="M38.34 26l.16 8.5h5.586a3.414 3.414 0 002.414-1h0M25 41h21m-10.5.5v8h-13m27 0h-14"/></g><path fill="#1e50a0" d="M59.035 60h-46.07a.968.968 0 01-.965-.965v-46.07a.968.968 0 01.965-.965h46.07a.968.968 0 01.965.965v46.07a.968.968 0 01-.965.965z"/><g fill="none" stroke="#000" stroke-width="2"><path stroke-miterlimit="10" d="M59.035 60h-46.07a.968.968 0 01-.965-.965v-46.07a.968.968 0 01.965-.965h46.07a.968.968 0 01.965.965v46.07a.968.968 0 01-.965.965z"/><path stroke-linecap="round" stroke-linejoin="round" d="M23 30v-4h25v4m-12.5-7.5V26m-4 .5s2 8-9 10"/><path stroke-linecap="round" stroke-linejoin="round" d="M38.34 26l.16 8.5h5.586a3.414 3.414 0 002.414-1h0M25 41h21m-10.5.5v8h-13m27 0h-14"/></g></svg>
